X:1
T:Jægersang
T:Jægersang
T:Theodor Hilde
C:Theodor Hilde
%%score [ 1 2 3 4 ]
L:1/8
Q:1/4=144
M:6/8
K:D
V:1 treble-8 nm="T1"
V:2 treble-8 nm="T2"
V:3 bass nm="B1"
V:4 bass nm="B2"
V:1
"^Vivace"!f! A | !>!f3- f2 e | d2 z z2 d | !>!g3- g2 f | e2 z z2 e | a2 g f2 g | f2 e d2 e | %7
w: Fra|Skov _ og|Vang til|Hor- * nets|Klang frisk|klin- ger nu i|Ju- bel- kor vor|
 d3 c3 | d3 z2!mf! e | e3- e A B |!<(! c3- c!<)! d e | f3-!>(! f3!>)! | d2 z z2!mf! f | f3- f B c | %14
w: Jæ- ger-|sang! Langs|Fjel- * de- nes|Ræk- * ke det|run- *|ger, mens|Hul- * dre og|
!<(! ^d3- d!<)! e f | g3-!>(! g3!>)! | e2 z z2!mf! f | g3 g2 f | e3 e2 d | c2 d!>(! c2 B!>)! | %20
w: Dver- * ge den|sjun- *|ger for|Ju- ring og|Jen- te saa|li- ste- lig ved|
 A2 z!mf! A3 | B2 c d2 e | f3 g2 e | d3!<(! e3!<)! | f3 z2!f! B | c2 ^d!<(! e2 f!<)! | g3 f2 e | %27
w: Kveld at|lok- ke ved de|tryl- len- de|To- ners|Væld, at|lok- ke ved de|tryl- len- de|
!ff! !>!f3- f3 | !>!e3- e3 | !>!d3- d3 |] %30
w: To- *|ners _|Væld. _|
V:2
!f! A | !>!d3- d2 c | d2 z z2 d | !>!d3- d2 d | d2 z z2 c | d2 c d2 e | d2 c d2 B | A3 A3 | %8
w: Fra|Skov _ og|Vang til|Hor- * nets|Klang frisk|klin- ger nu i|Ju- bel- kor vor|Jæ- ger-|
 A3 z2!mf! c | c3- c A B |!<(! c3- c!<)! d c | d3-!>(! d3!>)! | d2 z z2!mf! ^d | ^d3- d B c | %14
w: sang! Langs|Fjel- * de- nes|Ræk- * ke det|run- *|ger, mens|Hul- * dre og|
!<(! ^d3- d!<)! e d | e3-!>(! e3!>)! | e2 z z2!mf! =d | c3 c2 d | A3 A2 A | A2 A!>(! A2 ^G!>)! | %20
w: Dver- * ge den|sjun- *|ger for|Ju- ring og|Jen- te saa|li- ste- lig ved|
 A2 z!mf! A3 | B2 c d2 c | d3 d2 B | A3!<(! c3!<)! | d3 z2!f! B | c2 ^d!<(! e2 d!<)! | e3 ^d2 e | %27
w: Kveld at|lok- ke ved de|tryl- len- de|To- ners|Væld, at|lok- ke ved de|tryl- len- de|
!ff! !>!=d3- d3 | !>!c3- c3 | !>!A3- A3 |] %30
w: To- *|ners _|Væld. _|
V:3
!f! A, | !>!A,3- A,2 A, | A,2 z z2 A, | !>!B,3- B,2 B, | B,2 z z2 B, | A,2 A, A,2 B, | %6
w: Fra|Skov _ og|Vang til|Hor- * nets|Klang frisk|klin- ger nu i|
 A,2 G, F,2 G, | F,3 E,3 | F,3 z2!mf! A, | A,3- A, A, A, |!<(! A,3- A,!<)! A, A, | %11
w: Ju- bel- kor vor|Jæ- ger-|sang! Langs|Fjel- * de- nes|Ræk- * ke det|
 A,3-!>(! A,3!>)! | A,2 z z2!mf! B, | B,3- B, B, B, |!<(! B,3- B,!<)! B, B, | B,3-!>(! B,3!>)! | %16
w: run- *|ger, mens|Hul- * dre og|Dver- * ge den|sjun- *|
 B,2 z z2!mf! A, | A,3 A,2 A, | A,3 E,2 E, | E,2 =F,!>(! E,2 D,!>)! | C,2 z!mf! A,3 | %21
w: ger for|Ju- ring og|Jen- te saa|li- ste- lig ved|Kveld at|
 A,2 A, A,2 A, | A,3 G,2 G, | F,3!<(! A,3!<)! | A,3 z2!f! B, | B,2 B,!<(! B,2 B,!<)! | B,3 B,2 B, | %27
w: lok- ke ved de|tryl- len- de|To- ners|Væld, at|lok- ke ved de|tryl- len- de|
!ff! !>!A,3- A,3 | !>!G,3- G,3 | !>!F,3- F,3 |] %30
w: To- *|ners _|Væld. _|
V:4
!f! A, | !>!D,3- D,2 E, | F,2 z z2 F, | !>!E,3- E,2 F, | G,2 z z2 G, | F,2 E, D,2 C, | %6
w: Fra|Skov _ og|Vang til|Hor- * nets|Klang frisk|klin- ger nu i|
 D,2 A,, B,,2 G,, | A,,3 A,,3 | D,3 z2 z | z2 z z2!mf! A, |!<(! A, B, A, G,!<)! F, E, | %11
w: Ju- bel- kor vor|Jæ- ger-|sang!|Langs|Fjel- de- nes Ræk- ke det|
 D,3-!>(! D,3!>)! | F,2 z z2 z | z2 z z2!mf! B, |!<(! B, =C B, A,!<)! G, F, | E,3-!>(! E,3!>)! | %16
w: run- *|ger,|mens|Hul- dre og Dver- ge den|sjun- *|
 G,2 z z2!mf! F, | E,3 E,2 D, | C,3 C,2 B,, | A,,2 A,,!>(! A,,2 A,,!>)! | A,,2 z!mf! A,3 | %21
w: ger for|Ju- ring og|Jen- te saa|li- ste- lig ved|Kveld at|
 A,2 G, F,2 E, | D,3 B,,2 G,, | A,,3!<(! A,,3!<)! | D,3 z2!f! B, | B,2 A,!<(! G,2 F,!<)! | %26
w: lok- ke ved de|tryl- len- de|To- ners|Væld, at|lok- ke ved de|
 E,3 F,2 G, |!ff! !>!A,3- A,3 | !>!A,,3- A,,3 | !>!D,3- D,3 |] %30
w: tryl- len- de|To- *|ners _|Væld. _|

